.local/share/icons/Gruvbox-Plus-Dark/panel/22/teams-tray-activity.svg

<svg xmlns="http://www.w3.org/2000/svg" width="22" height="22" version="1.1">
 <defs>
  <style id="current-color-scheme" type="text/css">
   .ColorScheme-Text { color:#ebdbb2; } .ColorScheme-Highlight { color:#458588; }
  </style>
 </defs>
 <circle style="fill:currentColor" class="ColorScheme-Highlight" cx="17" cy="17" r="2"/>
 <path style="fill:currentColor" class="ColorScheme-Text" d="M 4.0234375 3 C 3.4566955 3 3 3.4566955 3 4.0234375 L 3 16.976562 C 3 17.543305 3.4566955 18 4.0234375 18 L 14.173828 18 A 3 3 0 0 1 14 17 A 3 3 0 0 1 17 14 A 3 3 0 0 1 18 14.175781 L 18 4.0234375 C 18 3.4566955 17.543305 3 16.976562 3 L 4.0234375 3 z M 6 6 L 15 6 L 15 9 L 12 9 L 12 15 L 9 15 L 9 9 L 6 9 L 6 6 z"/>
</svg>

<svg width="22" height="22" version="1.1" xmlns="http://www.w3.org/2000/svg">
  <defs>
    <style id="current-color-scheme" type="text/css">.ColorScheme-Text { color:#ebdbb2; } .ColorScheme-Highlight { color:#458588; } .ColorScheme-NeutralText { color:#fe8019; } .ColorScheme-PositiveText { color:#689d6a; } .ColorScheme-NegativeText { color:#fb4934; }</style>
  </defs>
  <circle class="ColorScheme-Highlight" cx="17" cy="17" r="2" fill="currentColor"/>
  <path class="ColorScheme-Text" d="m4.023 3c-0.5667 0-1.023 0.4567-1.023 1.023v12.95c0 0.5667 0.4567 1.023 1.023 1.023h10.15a3 3 0 0 1-0.1738-1 3 3 0 0 1 3-3 3 3 0 0 1 1 0.1758v-10.15c0-0.5667-0.4567-1.023-1.023-1.023h-12.95zm1.977 3h9v3h-3v6h-3v-6h-3v-3z" fill="currentColor"/>
</svg>
